X:1
T:[ID 1-78a]
T:[ID 1-78a]
T:Bezeichnung standardisiert: Menuett Menuet 40. In dieser Quelle auch als: Menuetto
T:Urheber unbekannt Erstbeleg: vor 1767 (Datum in der schriftlichen Quelle) Datum in der hier transkribierten schriftlichen Quelle: 1775
C:Urheber unbekannt
C:Erstbeleg: vor 1767 (Datum in der schriftlichen Quelle)
C:Datum in der hier transkribierten schriftlichen Quelle: 1775
L:1/8
M:3/4
K:D
V:1 treble 
V:1
 f4 dF | G2 FE F2 | F4 DF | G2 FE F2 | AGABcA | C2 e4 | df e2 d2 | c6 :: F3 GAF | GDB,A, B,2 | %10
 ^G3 ABG | AECB, C2 | c3 edc | dA FE F2 | (3GFE D2 E2 | F6 :| %16

